X:1
T:Conqueror, 87.87 D
T:Conqueror, 87.87 D
T:John S. Wiseman, 1885
T:Public Domain Courtesy of the Cyber Hymnal™
C:John S. Wiseman, 1885
Z:Public Domain
Z:Courtesy of the Cyber Hymnal™
%%score ( 1 2 ) ( 3 4 )
L:1/8
Q:1/4=105
M:4/4
K:F
V:1 treble 
V:2 treble 
V:3 bass 
V:4 bass 
V:1
 F2 C2 F2 C2 | A2 F2 c2 A2 | d3 d B2 G2 | c2 C2 F2 z2 | [CF]2 C2 [CF]2 C2 | %5
 [FA]2 [CF]2 [Cc]2 [FA]2 | d3 [=Fd] [GB]2 G2 | c2 c2 [FA]4 | [Af]3 [Af] [Ae]2 [Ae]2 | %9
 [Fd]2 [Fd]2 [Fc]2 [Ac]2 | [AB]2 [GB]2 A3 [Bd] | [Af]3 [Ge] [Fd]4 | [CE]2 [CF]2 [EA]2 [GB]2 | %13
 [FB]2 [Gc]2 [Gd]2 [Ge]2 | [Ff]3 [Gc] [FA]3 [=B,F] | F2 A2- A3 [EG] x5 | F8 |] %17
V:2
 F2 C2 F2 C2 | A2 F2 c2 A2 | d3 d B2 G2 | c2 C2 F2 x2 | x2 C2 C2 x2 | x8 | (^FG) (A x2 G2) x | %7
 (AG) (FE) x4 | x8 | x8 | x4 (FG) A x | x8 | x8 | x8 | x8 | (CB, CD ECD) x6 | F8 |] %17
V:3
 F,2 C,2 F,2 C,2 | A,2 F,2 C2 A,2 | D3 D B,2 G,2 | C2 C,2 F,2 z2 | A,2 (A,B,) (CB,) (A,G,) | %5
 C2 C2 F2 C2 | D3 [D,D] D2 ([B,D][G,E]) | (FE) (DC) [F,C]4 | [D,D]3 [F,D] [A,D]2 [A,,C]2 | %9
 [B,,C]2 [D,B,]2 [F,B,]2 [F,,A,]2 | D2 D2 D3 [G,D] | [A,D]2 [A,,^C]2 [D,D]4 | %12
 [B,C]2 [A,C]2 [G,C]2 [F,C]2 | D2 [CE]2 [=B,F]2 [B,_C]2 | [A,C]3 [E,C] [F,C]3 [D,G,] | %15
 (A,G,A,B, CA, z) x6 | [F,A,]8 |] %17
V:4
 F,2 C,2 F,2 C,2 | A,2 F,2 C2 A,2 | D3 D B,2 G,2 | C2 C,2 F,2 x2 | (F,G,) F,2 A,2 A,2 | %5
 (F,G,) (A,B,) (A,G,) (F,E,) | (D,E,) (^F,G, A,) x3 | C2 C,2 x4 | x8 | x8 | %10
 (G,,A,,) (B,,C,) (D,E,) F, x | x8 | x8 | D2 x6 | x8 | C,4- C,6 B,2 C, | x8 |] %17

